originals/bze.svg

<?xml version="1.0" encoding="UTF-8"?>
<svg width="36px" height="40px" viewBox="0 0 36 40" version="1.1" xmlns="http://www.w3.org/2000/svg" xmlns:xlink="http://www.w3.org/1999/xlink">
    <title>bze</title>
    <g id="bze" stroke="none" stroke-width="1" fill="none" fill-rule="evenodd">
        <path d="M12.5283867,39.2766034 L0.585054621,39.2766034 L2.92811081,26.0640828 L15.3270151,14.9343671 L4.78312968,14.9343671 L13.3094054,9.7274872 L27.1728192,9.7274872 L9.24145598,27.365869 L8.03746274,34.1023212 C8.03746274,34.1023212 12.0402169,34.3950376 15.1968894,34.1023212 C18.353562,33.7767421 21.900744,32.4750884 21.900744,32.4750884 L12.5283867,39.2766034 Z M31.3056989,10.9966758 L25.9686934,16.2035556 C25.9686934,16.2035556 30.4596174,21.1826494 26.3266051,28.0166296 C22.2587882,34.7206166 8.75341866,33.4838932 8.75341866,33.4838932 L9.79468863,27.5936551 L28.7999195,9.10919175 L13.0490217,9.10919175 L14.6436568,0.127211321 L7.02852541,0.127211321 L4.29495985,15.4875997 L13.9927637,15.4875997 L2.47253864,25.8362967 L0.0318219772,39.7647732 C0.0318219772,39.7647732 9.24145598,40.0250245 17.0519083,39.7647732 C24.8948258,39.5043895 34.0392645,32.800535 35.3736484,25.2180012 C37.1960696,14.9668322 31.3056989,10.9966758 31.3056989,10.9966758 Z" id="Shape" fill="#221E1F" fill-rule="nonzero"></path>
    </g>
</svg>

<svg xmlns="http://www.w3.org/2000/svg" width="36" height="40" viewBox="0 0 36 40"><path fill="#221E1F" d="M12.528 39.277H.585l2.343-13.213 12.399-11.13H4.783l8.526-5.207h13.864L9.24 27.366l-1.204 6.736s4.003.293 7.16 0c3.157-.325 6.704-1.627 6.704-1.627zm18.778-28.28-5.337 5.207s4.49 4.979.358 11.813c-4.068 6.704-17.574 5.467-17.574 5.467l1.042-5.89L28.8 9.109H13.049L14.644.127H7.029l-2.734 15.36h9.698l-11.52 10.35L.032 39.764s9.21.26 17.02 0c7.843-.26 16.987-6.964 18.322-14.547 1.822-10.251-4.068-14.221-4.068-14.221"/></svg>
